X:1
T:Amicus meus
T:Ingegneri edit BMarble
T:Amicus meus
T:Copyright © 2016 by The Choral Public Domain Library. Edition may be freely distributed, duplicated, performed or recorded.
T:Copyright © 2016 by The Choral Public Domain Library. Edition may be freely distributed, duplicated, performed or recorded.
T:Copyright © 2016 by The Choral Public Domain Library. Edition may be freely distributed, duplicated, performed or recorded.
T:Copyright © 2016 by The Choral Public Domain Library. Edition may be freely distributed, duplicated, performed or recorded.
C:Ingegneri
C:edit BMarble
Z:Copyright © 2016 by The Choral Public Domain Library. Edition may be freely distributed, duplicated, performed or recorded.
%%score [ 1 2 3 4 ]
L:1/8
Q:1/4=92
M:4/4
K:Eb
V:1 treble nm="Soprano" snm="S."
V:2 treble nm="Alto" snm="A."
V:3 treble-8 transpose=-12 nm="Tenor" snm="T."
V:4 bass nm="Baritone" snm="Bar."
V:1
"^Nr. 4 of Nine Responsories for Holy Thursday:My friend used a kiss to betray me:\"He who will be kissed, is he:  arrest him!\"The evil one gave the signal: he who by a kiss committed murder.The miserable one refused the blood money, and at the end, hung himself in tears." G4 G4- | %1
w: A- mi-|
 G2 G2 G4 | G8 | c3 c c2 c2 | c3 c c4 | B8 | B2 B2 B2 B2 | A2 G2 B3 B | B4 B4 | B2 B4 A2 | %10
w: * cus me-|us|o- scu- li me|tra- di- dit|si-|gno; Quem o- scu-|la- tus fu- e-|ro, i-|pse est te-|
 (G3 F E2) F2 | G4 G4 | z2 G2 G2 G2 | A2 B2 c4 | B2 B4 B2 | B3 B B2 B2 | B2 B4 A2- | A2 G4 F2 | %18
w: ne- * * te|e- um:|hoc ma- lum|fe- cit si-|gnum, qui per|o- scu- lum ad|im- ple- vit|_ ho- mi-|
 G6 G2 | G8 ||S =B8 | c4 =B2 B2 | =B2 B4 c2 | A3 A G2 A2- | A2 G2 G4 | z2 =A4 A2 | =A2 _B2 c4- | %27
w: ci- di-|um.|In-|fe- lix prae-|ter- mi- sit|pre- ti- um san-|* gui- nis|et in|fi- ne la-|
 c2 _B2 B4- | B4 B4 | G4 c4- | (c2 =B=A) B4!fine! |] z8 | z8 | z8 | z8 | z8 | z8 | z8 | z8 | z8 | %40
w: * que- o|_ se|su- spen-|* * * dit.||||||||||
 z8 | z8 |] %42
w: ||
V:2
 E4 E4- | E2 E2 D4 | E4 z2 G2- | GG G2 A2 A2- | A2 E2 A4 | (G4 F4) | G2 G2 F2 G2 | E2 E2 F3 F | %8
w: A- mi-|* cus me-|us o-|* scu- li me tra-|* di- dit|si- *|gno; Quem o- scu-|la- tus fu- e-|
 F4 G4 | F2 G4 F2 | E2 D2 (C4 | D4) =E4 | z2 =E2 E2 E2 | F2 G2 A4 | G2 G4 F2 | G3 G G2 G2 | %16
w: ro, i-|pse est te-|ne- te e-|* um:|hoc ma- lum|fe- cit si-|gnum, qui per|o- scu- lum ad|
 G2 G4 F2 | E2 D2 (C4 | D6) D2 | =E8 || G8 | G4 G2 G2 | G2 G4 G2 | F3 F B,2 C2- | C2 B,2 B,4 | %25
w: im- ple- vit|ho- mo- ci-|* di-|um.|In-|fe- lix prae-|ter- mi- sit|pre- ti- um san-|* gui- nis|
 z2 F4 F2 | F2 F2 A4- | A2 G2 G4 | F4 G4 | (E3 F G4) | G8 |] G,4 B,4 | A,2 G,2 A,4 | G,4 z2 C2- | %34
w: et in|fi- ne la-|* que- o|se su-|spen- * *|dit.|Bo- num|e- rat il-|li, bo-|
 C2 B,2 C2 D2 | E4 D4 | z2 B,2 B,4 | B,4 C4 | D4 E4 | D2 C4 B,2 | (E3 D/C/ D4) | C8 |] %42
w: * num e- rat|il- li,|si na-|tus non|fu- is-|set ho- mo|il- * * *|le.|
V:3
 c4 c4- | c2 c2 =B4 | c4 e3 e | e2 e2 e4 | e2 c4 f2- | fe e4 d2 | e2 e2 d2 e2 | c2 e2 d3 d | %8
w: A- mi-|* cus me-|us o- scu-|li me tra-|di- dit si-||gno; Quem o- scu-|la- tus fu- e-|
 d4 e4 | d2 e2 e2 c2- | c2 B2 (ed c2-) | (c2 =B2) c4 | z2 c2 c2 c2 | c2 e2 e4 | e2 e4 d2 | %15
w: ro, i-|pse est te- ne-|* te e- * *|* * um:|hoc ma- lum|fe- cit si-|gnum, qui per|
 e3 e e2 e2 | e2 e2 e2 c2- | c2 =B2 c4- | (c2 =B=A B2) B2 | c8 || d8 | e4 d2 d2 | d2 d4 e2 | %23
w: o- scu- lum ad|im- ple- vit ho-|* mo- ci-|* * * * di-|um.|In-|fe- lix prae-|ter- mi- sit|
 c3 c e2 e2- | e2 e2 e4 | z2 c4 c2 | c2 d2 e4- | e2 e2 e4 | d4 d4 | (c3 d e4) | d8 |] z8 | z8 | %33
w: pre- ti- um san-|* gui- nis|et in|fi- ne la-|* que- o|se su-|spen- * *|dit.|||
 z4 G4 | F2 G2 =A2 B2- | (B=A/G/ A2) B4 | z2 G2 G4 | F2 G4 =A2 | B4 G2 c2 | B2 e4 d2- | dc c4 =B2 | %41
w: bo-|num e- rat il-|* * * * li,|si na-|tus non fu-|is- set ho-|mo il- *||
 c8 |] %42
w: le.|
V:4
 C,4 C,4- | C,2 C,2 G,4 | C,4 C3 C | C2 C2 A,4- | A,2 A,2 F,4 | (G,3 A, B,4) | E,2 E,2 B,2 G,2 | %7
w: A- mi-|* cus me-|us o- scu-|li me tra-|* di- dit|si- * *|gno; Quem o- scu-|
 A,2 C2 B,3 B, | B,4 E,4 | B,,2 E,4 F,2 | G,4 A,4 | G,4 C,4 | z2 C,2 C,2 C,2 | F,2 E,2 A,4 | %14
w: la- tus fu- e-|ro, i-|pse est te-|ne- te|e- um:|hoc ma- lum|fe- cit si-|
 E,2 E,4 B,,2 | E,3 E, E,2 E,2 | E,2 E,4 F,2 | G,4 A,4 | G,6 G,2 | C,8 || G,8 | C4 G,2 G,2 | %22
w: gnum, qui per|o- scu- lum ad|im- ple- vit|ho- mo-|ci- di-|um.|In-|fe- lix prae-|
 G,2 G,4 C,2 | F,3 F, E,2 A,2- | A,2 E,2 E,4 | z2 F,4 F,2 | F,2 B,2 A,4- | A,2 E,2 E,4 | B,4 G,4 | %29
w: ter- mi- sit|pre- ti- um san-|* gui- nis|et in|fi- ne la-|* que- o|se su-|
 C8 | G,8 |] E,4 D,2 E,2 | F,2 (G,4 F,2) | G,4 E,4 | D,2 E,4 D,2 | C,4 B,,4 | z2 E,2 E,4 | %37
w: spen-|dit.|Bo- num e-|rat il- *|li, bo-|num e- rat|il- li,|si na-|
 D,2 E,4 C,2 | B,,4 C,4 | G,8 | A,4 G,4 | C,8 |] %42
w: tus non fu-|is- set|ho-|mo il-|le.|

